Adwaita++/apps/scalable/google-earth.svg

<svg height="128" width="128" xmlns="http://www.w3.org/2000/svg">
  <circle cx="64" cy="64" fill="#2a58d3" r="60"/>
  <g fill="#f6f5f4">
    <path d="m64 6.25c-7.266 0-14.216094 1.3449219-20.621094 3.794922 2.4585-.3370001 5.401094-.544922 8.933594-.544922 20.147 0 31.5715 8.768 39.875 18.0625 5.5415 6.203 15.1655 24.6875 22.3125 24.6875 2.0795-.18 3.71255-1.792719 4.99805-4.261719-6.942-24.105-29.15905-41.738281-55.49805-41.738281zm-25.5 13.416016c-5.12 0-9.820219.880515-13.886719 2.103515-7.5315 7.0275-13.181828 16.044344-16.1113279 26.214844 6.0189999-6.0165 12.8970629-11.818359 20.1640629-11.818359 19.5105 0 53.843906 41.338609 90.316404 45.537109.9305-2.892 1.64238-5.881172 2.10938-8.951172-16.582-3.612-37.428284-22.962453-44.925784-30.251953-11.7195-11.3955-22.657516-22.833984-37.666016-22.833984zm-19.75 63.333984c-3.67 0-5.788266 2.563109-7.009766 5.599609 5.782 12.260501 15.751453 22.157161 28.064454 27.847661-1.736-4.461-2.784157-10.36329 3.839843-10.36329 5.854 0 11.688969 5.04102 33.292969 5.04102 9.8645 0 18.949406-2.05708 25.62891-4.14258 3.536-3.175 6.6797-6.77992 9.3457-10.73242-6.381 2.272-15.67461 4.8125-25.34961 4.8125-33.5 0-58.8125-18.0625-67.8125-18.0625z"/>
    <path d="m124 64c-26.643236 28.401511-121.2299161 17.194817-120 0 0-33.137085 26.862915-60 60-60s60 26.862915 60 60" opacity=".4"/>
  </g>
</svg>

<svg xmlns="http://www.w3.org/2000/svg" width="128" height="128" version="1.0">
 <circle fill="#2a58d3" opacity="1.0" cx="64" cy="64" r="60"/>
 <path fill="#f6f5f4" opacity="1.0" d="M 64,6.25 C 56.734,6.25 49.783906,7.5949219 43.378906,10.044922 45.837406,9.7079219 48.78,9.5 52.3125,9.5 c 20.147,0 31.5715,8.768 39.875,18.0625 5.5415,6.203 15.1655,24.6875 22.3125,24.6875 2.0795,-0.18 3.71255,-1.792719 4.99805,-4.261719 C 112.55605,23.883281 90.339,6.25 64,6.25 Z M 38.5,19.666016 c -5.12,0 -9.820219,0.880515 -13.886719,2.103515 -7.5315,7.0275 -13.181828,16.044344 -16.1113279,26.214844 6.0189999,-6.0165 12.8970629,-11.818359 20.1640629,-11.818359 19.5105,0 53.843906,41.338609 90.316404,45.537109 0.9305,-2.892 1.64238,-5.881172 2.10938,-8.951172 C 104.5098,69.139953 83.663516,49.7895 76.166016,42.5 64.446516,31.1045 53.5085,19.666016 38.5,19.666016 Z M 18.75,83 c -3.67,0 -5.788266,2.563109 -7.009766,5.599609 5.782,12.260501 15.751453,22.157161 28.064454,27.847661 -1.736,-4.461 -2.784157,-10.36329 3.839843,-10.36329 5.854,0 11.688969,5.04102 33.292969,5.04102 9.8645,0 18.949406,-2.05708 25.62891,-4.14258 3.536,-3.175 6.6797,-6.77992 9.3457,-10.73242 -6.381,2.272 -15.67461,4.8125 -25.34961,4.8125 C 53.0625,101.0625 27.75,83 18.75,83 Z"/>
 <path fill="#f6f5f4" opacity="0.4" d="M 124,64 C 97.356764,92.401511 2.7700839,81.194817 4,64 4,30.862915 30.862915,4 64,4 c 33.137085,0 60,26.862915 60,60"/>
</svg>
